X:116
T:The Honble. G. Carnegies Strathspey
S:Anderson's Pocket Companion, Perth 1807 (Glen.42) p52
M:4/4
L:1/8
Q:1/4=120
K:A Minor
A>Bc<A E<AA2|B>AG<d BG  G2 | A>BcA  EAc<e |d<BG<B (cA)A2:|
a>ge<a g<ea2|g>ed>g B>G(dB)|a>ge>a  g<ea2 |g<eg>B (BA)A2 |
a>ge<a g<ea2|g>ed>g B>GdB  |A>cB<d  c<ed<a|g<eg<B  BA A2|]

